t120
o5
l2.[r]4
l4rf+a gf+c+ <b>c+d <a2.
f+1.r1.
> rf+a gf+c+ <b>c+d <a2.
l2. >c+ f+ <e1. r
l4 ab>c ed<b >dc<b >d1 rd
efg acd ed<b> d1 rd
g2. f+2. <bab >c+de c+de
<f+dg >c2. d2.
;
o3
[rb8>d8f+ r<a8>c+8f+<]8
ra8>c+8f+ r<b8>d8f+ r<gb rb8>d8g
r<f8a8>d r<a8>c8e r<g8b8>e l8 r4<dgb>e
r4<cea>d r4<cf+a>d r4<a>cf4 r4<a>ce4
r4<dgb>e r4<cea>d
r4<cf+a>d r4<b>eg4 r4<a>c+f+4 r4<b>df+4 r4c+ea4
r4<a>c+f+a r4<a4a4 >c2. d2.
;
o2l2.
[g d]8 f+ b e e
d a [d]9
e f+ b e
e e4b4>e4< a d
